X: 41476
T: Tyra Ava
R: reel
M: 4/4
K: Ddorian
DE|F~A,3 FA,GA,|E~A,3 EA,FE|D2DF EDCB,|A, ~C3 A,CG,E|
F~A,3 FA,GA,|E~A,3 EA,FE|D2DF EDCE|DFECD2:|
DE|FAA_B AGFD|Eccd cAGE|D2DF EDCB,|A, ~C3 A,CG,E|
FAA_B AGFD|Eccd cABc|d2 df edce|dfec dcde|
f~A3 fAgA|e ~A3 eAfA|D2DF EDCB,|A, ~C3 A,CG,E|
F~A,3 FA,GA,|E~A,3 EA,FE|D2DF EDCE|DFECD2:|

